raw-svg/vimeo.svg

<svg viewBox="0 0 24 24" xmlns="http://www.w3.org/2000/svg"><path d="m18.4 4h-12.8a1.6 1.6 0 0 0 -1.6 1.6v12.8a1.6 1.6 0 0 0 1.6 1.6h12.8a1.6 1.6 0 0 0 1.6-1.6v-12.8a1.6 1.6 0 0 0 -1.6-1.6zm-.94 5.31q-.08 1.69-2.35 4.63c-1.57 2-2.91 3.06-4 3.06-.68 0-1.24-.62-1.71-1.87-.91-3.33-1.3-5.28-2-5.28a3.53 3.53 0 0 0 -.91.54l-.54-.7c1.33-1.17 2.6-2.47 3.4-2.54s1.41.53 1.65 1.85c.74 4.69 1.07 5.4 2.41 3.27a4.63 4.63 0 0 0 .78-1.74c.13-1.19-.92-1.11-1.64-.8q.83-2.8 3.23-2.73 1.78.06 1.68 2.31z"/></svg>

<svg xmlns="http://www.w3.org/2000/svg" viewBox="0 0 24 24"><g id="vimeo"><path d="M18.4,4H5.6A1.6,1.6,0,0,0,4,5.6V18.4A1.6,1.6,0,0,0,5.6,20H18.4A1.6,1.6,0,0,0,20,18.4V5.6A1.6,1.6,0,0,0,18.4,4Zm-.94,5.31q-.08,1.69-2.35,4.63c-1.57,2-2.91,3.06-4,3.06-.68,0-1.24-.62-1.71-1.87-.91-3.33-1.3-5.28-2-5.28a3.53,3.53,0,0,0-.91.54l-.54-.7c1.33-1.17,2.6-2.47,3.4-2.54S10.76,7.68,11,9c.74,4.69,1.07,5.4,2.41,3.27a4.63,4.63,0,0,0,.78-1.74c.13-1.19-.92-1.11-1.64-.8Q13.38,6.93,15.78,7q1.78.06,1.68,2.31Z"/></g></svg>
